X: 2
T: The Longford Collector
R: reel
M: 4/4
L: 1/8
K: Gmaj
|G3A Bcdg|eB B2 eBdB|G3A B2dB|AcBA GEDE|
G3A BABd|eB B2 d2ef|gbaf gedB|AcBA GEDE|
GFGA BABd|eB B2 eBdB|G3A BcdB|AcBA GEDE|
G3A Bcdg|eB B2 d2ef|g3f gedB|AcBA GEED||
|g3f gedg|eB B2 d2ef|g2af gedB|AcBA GEDE|
g3f gedg|eB B2 d2ef|gbaf gedB|AcBA GE D2|
gfga gedg|eB B2 d2 ef|gbaf gedB|AcBA GEDE|
g3f gedg|eB B2 d2 ef|gbaf gedB|AcBA GE D2||


Tune 563	Setting 24959

